icon/lg/dimer.svg

<?xml version="1.0" encoding="UTF-8"?>
<svg viewBox="0 0 512 139" version="1.1" xmlns="http://www.w3.org/2000/svg" xmlns:xlink="http://www.w3.org/1999/xlink" preserveAspectRatio="xMidYMid" height="1em" width="1em">
  <g fill-rule="nonzero">
    <g>
      <path d="M13.0169492,0 L78.1016949,0 C102.465085,0 121.491525,12.2055593 121.491525,39.0508475 L121.491525,99.7966102 C121.491525,127.006373 102.465085,138.847458 78.1016949,138.847458 L13.0169492,138.847458 C10.620595,138.847458 8.6779661,136.904829 8.6779661,134.508475 L8.6779661,4.33898305 C8.6779661,1.94262888 10.620595,4.40203119e-16 13.0169492,0 Z" fill="#6142D2"/>
      <path d="M8.6779661,0 L47.7288136,0 C72.0922034,0 91.1186441,12.2055593 91.1186441,39.0508475 L91.1186441,99.7966102 C91.1186441,127.006373 72.0922034,138.847458 47.7288136,138.847458 L8.6779661,138.847458 C6.28161193,138.847458 4.33898305,136.904829 4.33898305,134.508475 L4.33898305,4.33898305 C4.33898305,1.94262888 6.28161193,4.40203119e-16 8.6779661,0 Z" fill="#461C7C"/>
      <path d="M4.33898305,0 L17.3559322,0 C41.719322,0 60.7457627,12.2055593 60.7457627,39.0508475 L60.7457627,99.7966102 C60.7457627,127.006373 41.719322,138.847458 17.3559322,138.847458 L4.33898305,138.847458 C1.94262888,138.847458 2.93468746e-16,136.904829 0,134.508475 L0,4.33898305 C-2.93468746e-16,1.94262888 1.94262888,4.40203119e-16 4.33898305,0 Z" fill="#02E2FF"/>
    </g>
    <path d="M169.463322,103.944678 L174.748203,102.434712 C175.70761,102.191572 176.653399,101.897551 177.581559,101.553898 C177.959051,101.384678 178.145627,100.842305 178.145627,99.9181017 L178.145627,39.1419661 C178.145627,38.2177627 177.959051,37.6103051 177.581559,37.3195932 C177.204068,37.0245424 176.301559,36.6687458 174.874034,36.2478644 L169.463322,34.7378983 L169.463322,30.459661 L208.974102,30.459661 C215.265627,30.459661 221.053831,31.3404746 226.338712,33.1021017 C231.623593,34.8637288 236.196881,37.3976949 240.054237,40.7170169 C243.917361,44.0362129 247.00928,48.1587723 249.114034,52.7967458 C251.296542,57.5349153 252.385627,62.8805424 252.385627,68.8379661 C252.385627,73.8711864 251.504814,78.7568814 249.743186,83.4993898 C248.030112,88.1580104 245.44745,92.4487035 242.13261,96.1431864 C238.817627,99.831322 234.70861,102.812203 229.80122,105.077153 C224.893831,107.342102 219.292203,108.474576 213.000678,108.474576 L169.463322,108.474576 L169.463322,103.944678 Z M208.47078,104.322169 C215.517288,104.322169 221.075525,101.345627 225.145492,95.3882034 C229.215458,89.4307797 231.246102,80.7484746 231.246102,69.3412881 C231.246102,65.5663729 230.890305,61.6048814 230.178712,57.4524746 C229.533668,53.5082201 228.280717,49.6878883 226.464542,46.1277288 C224.761625,42.7969783 222.305895,39.9089332 219.292203,37.6927458 C216.272271,35.4711864 212.414915,34.3604068 207.715797,34.3604068 L206.205831,34.3604068 C204.947525,34.3604068 203.60678,34.5079322 202.179254,34.8029831 C200.952796,35.0262547 199.765734,35.4282767 198.656,35.9962034 L198.656,102.938034 C199.749424,103.358915 201.04678,103.693017 202.561085,103.944678 C204.066712,104.196339 205.789288,104.322169 207.715797,104.322169 L208.47078,104.322169 Z M432.882983,109.984542 C428.773966,109.984542 424.999051,109.312 421.558237,107.971254 C418.199831,106.682233 415.170328,104.662071 412.689356,102.05722 C410.216136,99.4538305 408.285288,96.2690169 406.901153,92.4941017 C405.512678,88.7191864 404.783729,84.3975593 404.696949,79.5335593 C404.614508,74.5871186 405.326102,70.1613559 406.836068,66.2562712 C408.346034,62.3555254 410.424407,59.0448814 413.066847,56.32 C415.723469,53.5831842 418.943697,51.4570934 422.504136,50.0892203 C426.256149,48.6443245 430.246629,47.9186489 434.267119,47.9501017 C437.385791,47.9413416 440.493369,48.3217721 443.517831,49.0825763 C446.350038,49.7725017 449.035172,50.9658947 451.445153,52.6058305 C453.753492,54.1982373 455.619254,56.2549153 457.042441,58.7715254 C458.474305,61.2881356 459.181559,64.264678 459.181559,67.7054915 C459.181559,68.8770169 459.099119,70.1570169 458.929898,71.5411525 C458.778018,72.8299603 458.568087,74.1112621 458.300746,75.3811525 L424.074847,74.500339 L424.074847,76.6394576 C424.248407,79.7418305 424.725695,82.6359322 425.524068,85.3217627 C426.22805,87.8153789 427.379218,90.1603495 428.921492,92.2424407 C430.388068,94.1732881 432.175729,95.6832542 434.267119,96.772339 C436.367186,97.8614237 438.840407,98.4081356 441.691119,98.4081356 C445.383593,98.4081356 448.360136,97.9265085 450.629424,96.9589153 C452.986619,95.931546 455.122987,94.4581894 456.920949,92.6199322 L458.179254,93.8782373 C457.210889,95.9661713 456.028707,97.9481064 454.651661,99.7922712 C453.192887,101.754445 451.454784,103.492548 449.49261,104.951322 C447.313996,106.546081 444.892001,107.778324 442.320271,108.600407 C439.552,109.52461 436.406237,109.984542 432.882983,109.984542 Z M440.810305,68.8379661 C441.201591,67.9332166 441.477124,66.9827002 441.630373,66.0089492 C441.756203,65.1237966 441.816949,64.0997966 441.816949,62.9239322 C441.816949,59.3182373 441.187797,56.7191864 439.929492,55.1224407 C438.671186,53.5300339 436.952949,52.731661 434.770441,52.731661 C431.668068,52.731661 429.233898,54.3240678 427.472271,57.5132203 C425.710644,60.7023729 424.621559,64.8938305 424.200678,70.0962712 L440.810305,68.8379661 Z M257.605424,104.448 L259.870373,103.693017 C261.467119,103.020475 262.534508,102.538847 263.08122,102.243797 C263.627932,101.953085 263.896949,101.384678 263.896949,100.547254 L263.896949,62.7981017 C263.896949,61.2056949 263.519458,60.1122712 262.768814,59.5265085 C262.009492,58.9407458 260.920407,58.1814237 259.492881,57.2615593 L257.731254,56.2549153 L257.731254,52.48 L279.877424,47.9501017 L283.652339,47.9501017 L283.652339,100.547254 C283.652339,101.384678 283.886644,101.953085 284.346576,102.248136 C284.806508,102.538847 285.878237,103.020475 287.557424,103.693017 L289.818034,104.448 L289.818034,108.474576 L257.605424,108.474576 L257.605424,104.448 Z M293.905356,56.2332203 L293.905356,52.48 L316.051525,47.9501017 L319.826441,47.9501017 L319.826441,60.407322 C321.622442,56.9422623 324.156662,53.9133434 327.250441,51.5341017 C330.357153,49.147661 334.42278,47.9501017 339.456,47.9501017 C343.569356,47.9501017 347.153356,49.0391864 350.216678,51.2216949 C353.28,53.4042034 355.397424,56.4241356 356.568949,60.2814915 L357.449763,60.2814915 C358.16973,58.7751606 359.034357,57.3423495 360.031458,56.0032542 C361.156158,54.4992311 362.490158,53.1637704 363.992949,52.0374237 C365.589695,50.8225085 367.455458,49.8375593 369.590237,49.0825763 C371.733695,48.3275932 374.189559,47.9501017 376.953492,47.9501017 C380.060203,47.9501017 382.741695,48.5141695 385.006644,49.6509831 C387.226592,50.7455156 389.164249,52.3372152 390.669017,54.3023729 C392.178983,56.2766102 393.294102,58.5415593 394.005695,61.0972203 C394.717288,63.6572203 395.073085,66.3647458 395.073085,69.2154576 L395.073085,100.547254 C395.073085,101.384678 395.30739,101.953085 395.767322,102.248136 C396.227254,102.538847 397.298983,103.020475 398.978169,103.693017 L401.23878,104.448 L401.23878,108.474576 L369.529492,108.474576 L369.529492,104.448 L371.794441,103.693017 C373.642847,103.020475 374.775322,102.538847 375.191864,102.243797 C375.612746,101.953085 375.821017,101.384678 375.821017,100.547254 L375.821017,70.7254237 C375.821017,69.2978983 375.716881,67.7879322 375.50861,66.1955254 C375.324567,64.6910792 374.899704,63.2260356 374.250305,61.8565424 C373.64509,60.5851565 372.73606,59.4823983 371.603525,58.6456949 C370.47539,57.8082712 369.026169,57.3873898 367.264542,57.3873898 C364.834712,57.3873898 362.821424,58.0382373 361.224678,59.3399322 C359.632271,60.6416271 358.373966,62.0865085 357.449763,63.6789153 L357.701424,69.2154576 L357.701424,100.547254 C357.701424,101.384678 357.935729,101.953085 358.395661,102.248136 C358.855593,102.538847 359.927322,103.020475 361.606508,103.693017 L363.867119,104.448 L363.867119,108.474576 L332.032,108.474576 L332.032,104.448 L334.296949,103.693017 C336.145356,103.020475 337.277831,102.538847 337.694373,102.243797 C338.115254,101.953085 338.323525,101.384678 338.323525,100.547254 L338.323525,70.7254237 C338.323525,69.2978983 338.21939,67.8096271 338.011119,66.2562712 C337.821543,64.7724182 337.396785,63.3282409 336.752814,61.9780339 C336.147002,60.7082258 335.238016,59.6070115 334.106034,58.7715254 C332.977898,57.9341017 331.528678,57.5132203 329.767051,57.5132203 C328.595525,57.5132203 327.484746,57.7648814 326.434712,58.2682034 C325.402241,58.7607127 324.430937,59.3723281 323.54061,60.0905763 C322.012669,61.3133899 320.749061,62.8338526 319.826441,64.5597288 L319.826441,100.547254 C319.826441,101.384678 320.017356,101.909695 320.390508,102.122305 C320.772339,102.330576 321.462237,102.642983 322.47322,103.063864 L325.992136,104.448 L325.992136,108.474576 L293.779525,108.474576 L293.779525,104.448 L296.044475,103.693017 C297.723661,103.020475 298.812746,102.538847 299.316068,102.243797 C299.81939,101.953085 300.071051,101.384678 300.071051,100.547254 L300.071051,62.7981017 C300.071051,61.2056949 299.715254,60.1122712 299.003661,59.5265085 C297.974573,58.7147559 296.902756,57.9586905 295.792814,57.2615593 C295.494298,57.0281598 295.151998,56.8570099 294.786169,56.7582373 C294.501569,56.5698779 294.207586,56.3960947 293.905356,56.2375593 L293.905356,56.2332203 Z M465.408,104.448 L467.672949,103.693017 C469.352136,103.020475 470.44122,102.538847 470.944542,102.243797 C471.447864,101.953085 471.699525,101.384678 471.699525,100.547254 L471.699525,62.7981017 C471.699525,61.2056949 471.343729,60.1122712 470.632136,59.5265085 C469.603048,58.7147559 468.531231,57.9586905 467.421288,57.2615593 L465.533831,56.2549153 L465.533831,52.48 L487.68,47.9501017 L491.454915,47.9501017 L491.454915,61.2881356 C491.958237,59.7781695 492.669831,58.2508475 493.594034,56.6931525 C494.515852,55.1456266 495.613688,53.7099951 496.865627,52.4149153 C498.123932,51.1132203 499.469017,50.0458305 500.892203,49.2084068 C502.178338,48.4099945 503.656843,47.9751401 505.170441,47.9501017 C505.842983,47.9501017 506.576271,48.0542373 507.374644,48.2625085 C508.173017,48.4751186 508.88461,48.8526102 509.513763,49.3949831 C510.142915,49.9416949 510.667932,50.7617627 511.084475,51.8508475 C511.505356,52.9399322 511.713627,54.3674576 511.713627,56.1290847 C511.713627,57.5566102 511.461966,58.9407458 510.958644,60.2814915 C510.455322,61.6265763 509.952,62.7981017 509.448678,63.8047458 C508.720391,65.0233008 507.923633,66.1996047 507.062237,67.328 C505.717153,65.5663729 504.289627,64.3514576 502.779661,63.6789153 C501.269695,63.0063729 499.508068,62.6722712 497.49478,62.6722712 C496.154034,62.6722712 494.93478,62.8414915 493.850034,63.1755932 C492.75661,63.5096949 491.958237,64.0130169 491.454915,64.6855593 L491.454915,99.4147797 C491.454915,100.338983 491.585085,101.028881 491.832407,101.493153 C492.084068,101.953085 493.134102,102.391322 494.978169,102.812203 L501.269695,104.448 L501.269695,108.474576 L465.408,108.474576 L465.408,104.448 Z M274.093559,35.067661 C271.219039,35.0939376 268.453507,33.9689753 266.413559,31.9435932 C264.276641,29.9644039 263.086344,27.1670479 263.141966,24.2549153 C263.141966,21.2046102 264.23539,18.6142373 266.413559,16.4881356 C268.596068,14.3533559 271.156068,13.2859661 274.093559,13.2859661 C277.109153,13.2859661 279.669153,14.3533559 281.764881,16.4837966 C283.864949,18.6185763 284.910644,21.2046102 284.910644,24.2505763 C284.910644,27.3008814 283.864949,29.8652203 281.764881,31.9435932 C279.669153,34.0263051 277.109153,35.067661 274.08922,35.067661 L274.093559,35.067661 Z" fill="#110122"/>
  </g>
</svg>

<svg width="512" height="139" xmlns="http://www.w3.org/2000/svg" preserveAspectRatio="xMidYMid"><path d="M13.017 0h65.085c24.363 0 43.39 12.206 43.39 39.05v60.747c0 27.21-19.027 39.05-43.39 39.05H13.017a4.339 4.339 0 0 1-4.339-4.339V4.34A4.339 4.339 0 0 1 13.017 0Z" fill="#6142D2"/><path d="M8.678 0h39.05c24.364 0 43.39 12.206 43.39 39.05v60.747c0 27.21-19.026 39.05-43.39 39.05H8.679a4.339 4.339 0 0 1-4.339-4.339V4.34A4.339 4.339 0 0 1 8.678 0Z" fill="#461C7C"/><path d="M4.339 0h13.017c24.363 0 43.39 12.206 43.39 39.05v60.747c0 27.21-19.027 39.05-43.39 39.05H4.339A4.339 4.339 0 0 1 0 134.508V4.34A4.339 4.339 0 0 1 4.339 0Z" fill="#02E2FF"/><path d="m169.463 103.945 5.285-1.51a27.9 27.9 0 0 0 2.834-.881c.377-.17.564-.712.564-1.636V39.142c0-.924-.187-1.532-.564-1.822-.378-.295-1.28-.651-2.708-1.072l-5.41-1.51V30.46h39.51c6.292 0 12.08.88 17.365 2.642 5.285 1.762 9.858 4.296 13.715 7.615a34.99 34.99 0 0 1 9.06 12.08c2.183 4.738 3.272 10.084 3.272 16.041 0 5.033-.881 9.919-2.643 14.661a39.181 39.181 0 0 1-7.61 12.644c-3.315 3.688-7.424 6.67-12.332 8.934-4.907 2.265-10.509 3.398-16.8 3.398h-43.538v-4.53Zm39.008.377c7.046 0 12.605-2.976 16.674-8.934 4.07-5.957 6.101-14.64 6.101-26.047 0-3.775-.356-7.736-1.067-11.889a38.647 38.647 0 0 0-3.714-11.324 24.073 24.073 0 0 0-7.173-8.435c-3.02-2.222-6.877-3.333-11.576-3.333h-1.51c-1.258 0-2.6.148-4.027.443a12.744 12.744 0 0 0-3.523 1.193v66.942c1.093.42 2.39.755 3.905 1.007 1.506.251 3.228.377 5.155.377h.755Zm224.412 5.663c-4.109 0-7.884-.673-11.325-2.014a24.246 24.246 0 0 1-8.869-5.914c-2.473-2.603-4.404-5.788-5.788-9.563-1.388-3.775-2.117-8.096-2.204-12.96-.082-4.947.63-9.373 2.14-13.278 1.509-3.9 3.587-7.211 6.23-9.936a26.294 26.294 0 0 1 9.437-6.23 32.035 32.035 0 0 1 11.763-2.14 37.489 37.489 0 0 1 9.25 1.133 24.324 24.324 0 0 1 7.928 3.523c2.308 1.592 4.174 3.649 5.597 6.166 1.432 2.516 2.14 5.493 2.14 8.933 0 1.172-.083 2.452-.252 3.836a43.16 43.16 0 0 1-.63 3.84l-34.225-.88v2.138c.173 3.103.65 5.997 1.45 8.683a21.391 21.391 0 0 0 3.396 6.92 15.839 15.839 0 0 0 5.346 4.53c2.1 1.09 4.573 1.636 7.424 1.636 3.693 0 6.67-.481 8.938-1.45a19.95 19.95 0 0 0 6.292-4.338l1.258 1.258a33.306 33.306 0 0 1-3.527 5.914 25.058 25.058 0 0 1-5.16 5.16 25.062 25.062 0 0 1-7.172 3.648c-2.768.925-5.914 1.385-9.437 1.385Zm7.927-41.147c.392-.905.667-1.855.82-2.83.126-.884.187-1.908.187-3.084 0-3.606-.63-6.205-1.888-7.802-1.258-1.592-2.976-2.39-5.159-2.39-3.102 0-5.536 1.592-7.298 4.781-1.761 3.19-2.85 7.38-3.271 12.583l16.61-1.258Zm-183.205 35.61 2.265-.755c1.597-.673 2.665-1.154 3.211-1.45.547-.29.816-.858.816-1.696V62.798c0-1.592-.378-2.686-1.128-3.271-.76-.586-1.849-1.346-3.276-2.265l-1.762-1.007V52.48l22.146-4.53h3.775v52.597c0 .838.235 1.406.695 1.701.46.29 1.531.772 3.21 1.445l2.261.755v4.027h-32.213v-4.027Zm36.3-48.215V52.48l22.147-4.53h3.774v12.457a26.685 26.685 0 0 1 7.424-8.873c3.107-2.386 7.173-3.584 12.206-3.584 4.113 0 7.697 1.09 10.76 3.272 3.064 2.182 5.181 5.202 6.353 9.06h.88a25.774 25.774 0 0 1 2.582-4.279 19.699 19.699 0 0 1 3.962-3.966c1.597-1.214 3.462-2.2 5.597-2.954 2.144-.755 4.6-1.133 7.363-1.133 3.107 0 5.789.564 8.054 1.701a16.098 16.098 0 0 1 5.662 4.651c1.51 1.975 2.625 4.24 3.337 6.795.711 2.56 1.067 5.268 1.067 8.118v31.332c0 .838.234 1.406.694 1.701.46.29 1.532.772 3.211 1.445l2.26.755v4.027H369.53v-4.027l2.265-.755c1.849-.673 2.981-1.154 3.398-1.45.42-.29.629-.858.629-1.696V70.725c0-1.427-.104-2.937-.312-4.53a14.132 14.132 0 0 0-1.259-4.338 8.574 8.574 0 0 0-2.646-3.211c-1.129-.838-2.578-1.259-4.34-1.259-2.43 0-4.443.651-6.04 1.953-1.592 1.302-2.85 2.747-3.774 4.339l.251 5.536v31.332c0 .838.235 1.406.695 1.701.46.29 1.531.772 3.21 1.445l2.261.755v4.027h-31.835v-4.027l2.265-.755c1.848-.673 2.98-1.154 3.397-1.45.421-.29.63-.858.63-1.696V70.725a33.64 33.64 0 0 0-.313-4.469 14.084 14.084 0 0 0-1.258-4.278 8.574 8.574 0 0 0-2.647-3.206c-1.128-.838-2.577-1.259-4.339-1.259a7.614 7.614 0 0 0-3.332.755 14.666 14.666 0 0 0-2.894 1.823 14.449 14.449 0 0 0-3.715 4.469v35.987c0 .838.191 1.363.565 1.575.381.209 1.071.521 2.082.942l3.52 1.384v4.027H293.78v-4.027l2.264-.755c1.68-.673 2.769-1.154 3.272-1.45.503-.29.755-.858.755-1.696V62.798c0-1.592-.356-2.686-1.067-3.271a36.717 36.717 0 0 0-3.211-2.265 2.833 2.833 0 0 0-1.007-.504 10.08 10.08 0 0 0-.88-.52v-.005Zm171.503 48.215 2.265-.755c1.68-.673 2.768-1.154 3.272-1.45.503-.29.755-.858.755-1.696V62.798c0-1.592-.356-2.686-1.068-3.271a36.716 36.716 0 0 0-3.21-2.265l-1.888-1.007V52.48l22.146-4.53h3.775v13.338c.503-1.51 1.215-3.037 2.139-4.595a23.344 23.344 0 0 1 3.272-4.278c1.258-1.302 2.603-2.37 4.026-3.207a8.374 8.374 0 0 1 4.278-1.258c.673 0 1.406.104 2.205.313.798.212 1.51.59 2.139 1.132.629.547 1.154 1.367 1.57 2.456.421 1.089.63 2.516.63 4.278 0 1.428-.252 2.812-.755 4.152a36.627 36.627 0 0 1-1.51 3.524 37.575 37.575 0 0 1-2.387 3.523c-1.345-1.762-2.772-2.977-4.282-3.65-1.51-.672-3.272-1.006-5.285-1.006-1.341 0-2.56.17-3.645.504-1.093.334-1.892.837-2.395 1.51v34.729c0 .924.13 1.614.377 2.078.252.46 1.302.898 3.146 1.32l6.292 1.635v4.027h-35.862v-4.027Zm-191.314-69.38a10.76 10.76 0 0 1-7.68-3.124 10.214 10.214 0 0 1-3.272-7.69c0-3.05 1.093-5.64 3.272-7.766 2.182-2.135 4.742-3.202 7.68-3.202 3.015 0 5.575 1.067 7.67 3.198 2.1 2.135 3.147 4.72 3.147 7.767 0 3.05-1.046 5.614-3.146 7.693-2.096 2.082-4.656 3.124-7.676 3.124h.005Z" fill="#110122"/></svg>
